svg/emoji_u1f95f.svg

<?xml version="1.0" encoding="UTF-8" standalone="no"?>
<!-- Generator: Adobe Illustrator 25.2.3, SVG Export Plug-In . SVG Version: 6.00 Build 0)  -->

<svg
   version="1.1"
   id="Layer_2"
   x="0px"
   y="0px"
   viewBox="0 0 128 128"
   style="enable-background:new 0 0 128 128;"
   xml:space="preserve"
   sodipodi:docname="emoji_u1f95f.svg"
   inkscape:version="1.2.2 (732a01da63, 2022-12-09)"
   xmlns:inkscape="http://www.inkscape.org/namespaces/inkscape"
   xmlns:sodipodi="http://sodipodi.sourceforge.net/DTD/sodipodi-0.dtd"
   xmlns="http://www.w3.org/2000/svg"
   xmlns:svg="http://www.w3.org/2000/svg"><defs
   id="defs15394" /><sodipodi:namedview
   id="namedview15392"
   pagecolor="#ffffff"
   bordercolor="#000000"
   borderopacity="0.25"
   inkscape:showpageshadow="2"
   inkscape:pageopacity="0.0"
   inkscape:pagecheckerboard="0"
   inkscape:deskcolor="#d1d1d1"
   showgrid="false"
   inkscape:zoom="4.2421875"
   inkscape:cx="53.981584"
   inkscape:cy="62.939227"
   inkscape:window-width="1366"
   inkscape:window-height="697"
   inkscape:window-x="-8"
   inkscape:window-y="-8"
   inkscape:window-maximized="1"
   inkscape:current-layer="Layer_2" />
<path
   style="fill:#FFE5B2;"
   d="M11.7,110.26c6.03,4.72,17.15-0.33,17.15-0.33l12.74-4.41l66.47-42.3l8.98-11.6  c0,0,7.75-6.97,7.68-13.07c-0.07-6.06-3.27-8.98-8.33-9.47c-5.06-0.49-13.88,1.47-13.88,1.47s-2.57-8.3-7.49-11.78  c-0.13-0.09-0.12-0.72-0.25-0.8c-1.22-0.78-2.4-1.15-4.04-1.02c-1.65,0.13-3.14,0.46-4.4,0.89c-1.09,0.37-2.03,1.52-2.85,2.01  c-3.06,1.81-4.33,3.35-4.33,3.35l-14.05-3.43l-5.87-4.67c0,0-2.36-0.86-5.36-0.08c-2.69,0.7-4.14,1.89-4.84,2.46  c-0.3,0.25-3.52,13.72-3.52,13.72l-22.54,3.1c0,0-1.96,0.82-3.59,3.43c-1.63,2.61-2.21,7.1-2.21,7.1l2.7,15.76L7.86,67.28  c0,0-1.59,1.55-2.74,4.65c-1.14,3.1-0.97,5.6-0.9,6.94c0.06,1.03,9.11,9.5,9.11,9.5l-5.55,14.05  C7.78,102.43,7.94,107.33,11.7,110.26z"
   id="path15373" />
<path
   style="fill:#FACE90;"
   d="M55.18,50.94C38.11,61.26,36.23,77.4,36.89,88.01s3.43,18.13,3.43,18.13s20.25-3.27,40.51-17.31  s27.28-25.64,27.28-25.64s-8.21-10.04-20.09-15.84C74.84,40.91,62.2,46.69,55.18,50.94z"
   id="path15375" />
<path
   style="fill:#ffe5b2;fill-opacity:1"
   d="M94.81,17.94c0,0-5.41,16.68,4.44,20.98c12.84,5.61,17.17-9.87,17.17-9.87s-5.87-0.73-9.32-2.42  C101.02,23.65,94.81,17.94,94.81,17.94z"
   id="path15377" />
<path
   style="fill:#ffe5b2;fill-opacity:1"
   d="M59.04,15.08c0,0,0.25,15.53,13.54,17.39c13.29,1.86,13.79-14.66,13.79-14.66s-4.09,1.99-11.05,1.99  c-5.84,0-7.95-2.24-10.68-3.35C61.11,15.01,59.04,15.08,59.04,15.08z"
   id="path15379" />
<path
   style="fill:#ffe5b2;fill-opacity:1"
   d="M23.05,34.21c0,0,10.84,13.83,23.49,5.15c10.68-7.33,2.52-21.85,2.52-21.85s-6.87,8.86-10.46,10.8  C31.79,31.98,23.05,34.21,23.05,34.21z"
   id="path15381" />
<path
   style="fill:#ffe5b2;fill-opacity:1"
   d="M17.31,44.02c0,0,15.66,9.98,9.95,20.05c-5.71,10.06-19.39,3.18-19.39,3.18s7.45-5.09,8.94-8.69  S16.07,48.49,17.31,44.02z"
   id="path15383" />
<path
   style="fill:#ffe5b2;fill-opacity:1"
   d="M19.84,88.13c0.41,6.35-9.21,12.54-12,14.27c-0.62-3.99,1.39-8.32,0.89-12.54  c-0.51-4.26-4.79-7.5-4.46-11.02C8.01,79.02,19.3,79.81,19.84,88.13z"
   id="path15385" />


</svg>

<?xml version="1.0" encoding="UTF-8" standalone="no"?>
<!DOCTYPE svg PUBLIC "-//W3C//DTD SVG 1.1//EN" "http://www.w3.org/Graphics/SVG/1.1/DTD/svg11.dtd">
<svg width="100%" height="100%" viewBox="0 0 128 128" version="1.1" xmlns="http://www.w3.org/2000/svg" xmlns:xlink="http://www.w3.org/1999/xlink" xml:space="preserve" xmlns:serif="http://www.serif.com/" style="fill-rule:evenodd;clip-rule:evenodd;stroke-linejoin:round;stroke-miterlimit:2;">
    <path id="path15373" d="M11.7,110.26C17.73,114.98 28.85,109.93 28.85,109.93L41.59,105.52L108.06,63.22L117.04,51.62C117.04,51.62 124.79,44.65 124.72,38.55C124.65,32.49 121.45,29.57 116.39,29.08C111.33,28.59 102.51,30.55 102.51,30.55C102.51,30.55 99.94,22.25 95.02,18.77C94.89,18.68 94.9,18.05 94.77,17.97C93.55,17.19 92.37,16.82 90.73,16.95C89.08,17.08 87.59,17.41 86.33,17.84C85.24,18.21 84.3,19.36 83.48,19.85C80.42,21.66 79.15,23.2 79.15,23.2L65.1,19.77L59.23,15.1C59.23,15.1 56.87,14.24 53.87,15.02C51.18,15.72 49.73,16.91 49.03,17.48C48.73,17.73 45.51,31.2 45.51,31.2L22.97,34.3C22.97,34.3 21.01,35.12 19.38,37.73C17.75,40.34 17.17,44.83 17.17,44.83L19.87,60.59L7.86,67.28C7.86,67.28 6.27,68.83 5.12,71.93C3.98,75.03 4.15,77.53 4.22,78.87C4.28,79.9 13.33,88.37 13.33,88.37L7.78,102.42C7.78,102.43 7.94,107.33 11.7,110.26Z" style="fill:rgb(255,224,178);fill-rule:nonzero;"/>
    <path id="path15375" d="M55.18,50.94C38.11,61.26 36.23,77.4 36.89,88.01C37.55,98.62 40.32,106.14 40.32,106.14C40.32,106.14 60.57,102.87 80.83,88.83C101.09,74.79 108.11,63.19 108.11,63.19C108.11,63.19 99.9,53.15 88.02,47.35C74.84,40.91 62.2,46.69 55.18,50.94Z" style="fill:rgb(255,204,128);fill-rule:nonzero;"/>
    <path id="path15377" d="M94.81,17.94C94.81,17.94 89.4,34.62 99.25,38.92C112.09,44.53 116.42,29.05 116.42,29.05C116.42,29.05 110.55,28.32 107.1,26.63C101.02,23.65 94.81,17.94 94.81,17.94Z" style="fill:rgb(255,243,224);fill-rule:nonzero;"/>
    <path id="path15379" d="M59.04,15.08C59.04,15.08 59.29,30.61 72.58,32.47C85.87,34.33 86.37,17.81 86.37,17.81C86.37,17.81 82.28,19.8 75.32,19.8C69.48,19.8 67.37,17.56 64.64,16.45C61.11,15.01 59.04,15.08 59.04,15.08Z" style="fill:rgb(255,243,224);fill-rule:nonzero;"/>
    <path id="path15381" d="M23.05,34.21C23.05,34.21 33.89,48.04 46.54,39.36C57.22,32.03 49.06,17.51 49.06,17.51C49.06,17.51 42.19,26.37 38.6,28.31C31.79,31.98 23.05,34.21 23.05,34.21Z" style="fill:rgb(255,243,224);fill-rule:nonzero;"/>
    <path id="path15383" d="M17.31,44.02C17.31,44.02 32.97,54 27.26,64.07C21.55,74.13 7.87,67.25 7.87,67.25C7.87,67.25 15.32,62.16 16.81,58.56C18.3,54.96 16.07,48.49 17.31,44.02Z" style="fill:rgb(255,243,224);fill-rule:nonzero;"/>
    <path id="path15385" d="M19.84,88.13C20.25,94.48 10.63,100.67 7.84,102.4C7.22,98.41 9.23,94.08 8.73,89.86C8.22,85.6 3.94,82.36 4.27,78.84C8.01,79.02 19.3,79.81 19.84,88.13Z" style="fill:rgb(255,243,224);fill-rule:nonzero;"/>
</svg>
